icon-svg/toyota.svg

<svg xmlns="http://www.w3.org/2000/svg" viewBox="0 0 24 24"><path fill="#44739e" d="M12 5.188C6.344 5.188 2 8.094 2 12c0 3.75 4.219 6.812 10 6.812S22 15.75 22 12c0-3.875-4.344-6.812-10-6.812m4.375 1.531c1.063.406 1.75.937 1.875 1.406.219.844-.781 1.875-3.906 2.219-.219-2.125-.844-3.938-1.906-4.313a13.1 13.1 0 0 1 3.937.688m-2.906 3.719c-.438 0-.938.031-1.469.031-.5 0-.969 0-1.469-.031.25-1.782.875-2.813 1.469-2.813s1.25 1.031 1.469 2.813M5.75 8.125c.125-.437.781-.969 1.875-1.375a13.2 13.2 0 0 1 3.937-.719c-1.062.375-1.687 2.188-1.906 4.313C6.531 10 5.562 8.938 5.75 8.125M3.469 11.75a4.67 4.67 0 0 1 1.062-2.969c.094 1.531 2.157 2.657 5.063 3.063v.125c0 3.656.937 5.625 1.968 6-4.437-.157-8.093-2.907-8.093-6.219m6.969.219v-.031C10.969 11.969 11.5 12 12 12c.531 0 1.062 0 1.562-.031 0 2.719-.812 3.843-1.562 3.843s-1.562-1.124-1.562-3.843M12.406 18c1.063-.406 2-2.5 2-6.031v-.125c2.938-.406 5-1.532 5.063-3.063a4.67 4.67 0 0 1 1.062 2.969c0 3.312-3.656 6.094-8.125 6.25"/></svg>

<?xml version="1.0" encoding="UTF-8"?>
<svg width="24px" fill="#44739e" height="24px" viewBox="0 0 24 24" version="1.1" xmlns="http://www.w3.org/2000/svg" xmlns:xlink="http://www.w3.org/1999/xlink">
            <path d="M 12,5.188 C 6.344,5.188 2,8.094 2,12 2,15.75 6.219,18.812 12,18.812 17.781,18.812 22,15.75 22,12 22,8.125 17.656,5.188 12,5.188 Z m 4.375,1.531 c 1.063,0.406 1.75,0.937 1.875,1.406 C 18.469,8.969 17.469,10 14.344,10.344 14.125,8.219 13.5,6.406 12.438,6.031 a 13.113,13.113 0 0 1 3.937,0.688 z m -2.906,3.719 c -0.438,0 -0.938,0.031 -1.469,0.031 -0.5,0 -0.969,0 -1.469,-0.031 0.25,-1.782 0.875,-2.813 1.469,-2.813 0.594,0 1.25,1.031 1.469,2.813 z M 5.75,8.125 C 5.875,7.688 6.531,7.156 7.625,6.75 A 13.145,13.145 0 0 1 11.562,6.031 C 10.5,6.406 9.875,8.219 9.656,10.344 6.531,10 5.562,8.938 5.75,8.125 Z M 3.469,11.75 A 4.671,4.671 0 0 1 4.531,8.781 c 0.094,1.531 2.157,2.657 5.063,3.063 v 0.125 c 0,3.656 0.937,5.625 1.968,6 C 7.125,17.812 3.469,15.062 3.469,11.75 Z m 6.969,0.219 V 11.938 C 10.969,11.969 11.5,12 12,12 c 0.531,0 1.062,0 1.562,-0.031 0,2.719 -0.812,3.843 -1.562,3.843 -0.75,0 -1.562,-1.124 -1.562,-3.843 z M 12.406,18 c 1.063,-0.406 2,-2.5 2,-6.031 v -0.125 c 2.938,-0.406 5,-1.532 5.063,-3.063 a 4.671,4.671 0 0 1 1.062,2.969 c 0,3.312 -3.656,6.094 -8.125,6.25 z"/>

</svg>
